X:48
T: Der Bremberger
N: Q0016
O: Mitteleuropa, Deutschland
N: Kleinere Melodievarianten aus anderen Quellen abgedruckt.
R: Ballade, Eifersucht, Ehe, Hinrichtung, Tod
M: none
L: 1/8
K: G
G2 | G2G2G2d4d2 | G2G2A2_B4
B2 | c4A2G4A2 | _B4d2cBA2G2 | =F4
A2 | c2c2A2G4_B2 | A4G2A4
G2 | =F2E2D2F2F2G2 | A6G4

